X: 38520
T: Stellgreen
R: waltz
M: 3/4
K: Amixolydian
AG|F3 G EC|D4 A,2|B,3 B GE|A2 c2 e2|d3B Gd|AF D2A2|d3A FD|E3z AG|
F3 G EC|D4 A,2|B,3B GE|A2 c2 e2|d4 A2|B3c d2|dAFdEd|d3z A2|
c3 d e2|f2 d2 fe|d3 B F2|A3z A2|B3d g2|f2 d2 fe|d3B F2|c3zA2|
c3 d e2|fe d2 dc|d3B F2|A3 zA2|Bc d2 g2|f2 fe d2|d3B F2|A6||

